resources/luts/film-cool.cube
TITLE "film-cool"
LUT_3D_SIZE 6
0.000000 0.000000 0.000000
0.186000 0.000000 0.000000
0.372000 0.000000 0.000000
0.558000 0.000000 0.000000
0.744000 0.000000 0.000000
0.930000 0.000000 0.000000
0.000000 0.204000 0.000000
0.186000 0.204000 0.000000
0.372000 0.204000 0.000000
0.558000 0.204000 0.000000
0.744000 0.204000 0.000000
0.930000 0.204000 0.000000
0.000000 0.408000 0.000000
0.186000 0.408000 0.000000
0.372000 0.408000 0.000000
0.558000 0.408000 0.000000
0.744000 0.408000 0.000000
0.930000 0.408000 0.000000
0.000000 0.612000 0.000000
0.186000 0.612000 0.000000
0.372000 0.612000 0.000000
0.558000 0.612000 0.000000
0.744000 0.612000 0.000000
0.930000 0.612000 0.000000
0.000000 0.816000 0.000000
0.186000 0.816000 0.000000
0.372000 0.816000 0.000000
0.558000 0.816000 0.000000
0.744000 0.816000 0.000000
0.930000 0.816000 0.000000
0.000000 1.000000 0.000000
0.186000 1.000000 0.000000
0.372000 1.000000 0.000000
0.558000 1.000000 0.000000
0.744000 1.000000 0.000000
0.930000 1.000000 0.000000
0.000000 0.000000 0.210000
0.186000 0.000000 0.210000
0.372000 0.000000 0.210000
0.558000 0.000000 0.210000
0.744000 0.000000 0.210000
0.930000 0.000000 0.210000
0.000000 0.204000 0.210000
0.186000 0.204000 0.210000
0.372000 0.204000 0.210000
0.558000 0.204000 0.210000
0.744000 0.204000 0.210000
0.930000 0.204000 0.210000
0.000000 0.408000 0.210000
0.186000 0.408000 0.210000
0.372000 0.408000 0.210000
0.558000 0.408000 0.210000
0.744000 0.408000 0.210000
0.930000 0.408000 0.210000
0.000000 0.612000 0.210000
0.186000 0.612000 0.210000
0.372000 0.612000 0.210000
0.558000 0.612000 0.210000
0.744000 0.612000 0.210000
0.930000 0.612000 0.210000
0.000000 0.816000 0.210000
0.186000 0.816000 0.210000
0.372000 0.816000 0.210000
0.558000 0.816000 0.210000
0.744000 0.816000 0.210000
0.930000 0.816000 0.210000
0.000000 1.000000 0.210000
0.186000 1.000000 0.210000
0.372000 1.000000 0.210000
0.558000 1.000000 0.210000
0.744000 1.000000 0.210000
0.930000 1.000000 0.210000
0.000000 0.000000 0.420000
0.186000 0.000000 0.420000
0.372000 0.000000 0.420000
0.558000 0.000000 0.420000
0.744000 0.000000 0.420000
0.930000 0.000000 0.420000
0.000000 0.204000 0.420000
0.186000 0.204000 0.420000
0.372000 0.204000 0.420000
0.558000 0.204000 0.420000
0.744000 0.204000 0.420000
0.930000 0.204000 0.420000
0.000000 0.408000 0.420000
0.186000 0.408000 0.420000
0.372000 0.408000 0.420000
0.558000 0.408000 0.420000
0.744000 0.408000 0.420000
0.930000 0.408000 0.420000
0.000000 0.612000 0.420000
0.186000 0.612000 0.420000
0.372000 0.612000 0.420000
0.558000 0.612000 0.420000
0.744000 0.612000 0.420000
0.930000 0.612000 0.420000
0.000000 0.816000 0.420000
0.186000 0.816000 0.420000
0.372000 0.816000 0.420000
0.558000 0.816000 0.420000
0.744000 0.816000 0.420000
0.930000 0.816000 0.420000
0.000000 1.000000 0.420000
0.186000 1.000000 0.420000
0.372000 1.000000 0.420000
0.558000 1.000000 0.420000
0.744000 1.000000 0.420000
0.930000 1.000000 0.420000
0.000000 0.000000 0.630000
0.186000 0.000000 0.630000
0.372000 0.000000 0.630000
0.558000 0.000000 0.630000
0.744000 0.000000 0.630000
0.930000 0.000000 0.630000
0.000000 0.204000 0.630000
0.186000 0.204000 0.630000
0.372000 0.204000 0.630000
0.558000 0.204000 0.630000
0.744000 0.204000 0.630000
0.930000 0.204000 0.630000
0.000000 0.408000 0.630000
0.186000 0.408000 0.630000
0.372000 0.408000 0.630000
0.558000 0.408000 0.630000
0.744000 0.408000 0.630000
0.930000 0.408000 0.630000
0.000000 0.612000 0.630000
0.186000 0.612000 0.630000
0.372000 0.612000 0.630000
0.558000 0.612000 0.630000
0.744000 0.612000 0.630000
0.930000 0.612000 0.630000
0.000000 0.816000 0.630000
0.186000 0.816000 0.630000
0.372000 0.816000 0.630000
0.558000 0.816000 0.630000
0.744000 0.816000 0.630000
0.930000 0.816000 0.630000
0.000000 1.000000 0.630000
0.186000 1.000000 0.630000
0.372000 1.000000 0.630000
0.558000 1.000000 0.630000
0.744000 1.000000 0.630000
0.930000 1.000000 0.630000
0.000000 0.000000 0.840000
0.186000 0.000000 0.840000
0.372000 0.000000 0.840000
0.558000 0.000000 0.840000
0.744000 0.000000 0.840000
0.930000 0.000000 0.840000
0.000000 0.204000 0.840000
0.186000 0.204000 0.840000
0.372000 0.204000 0.840000
0.558000 0.204000 0.840000
0.744000 0.204000 0.840000
0.930000 0.204000 0.840000
0.000000 0.408000 0.840000
0.186000 0.408000 0.840000
0.372000 0.408000 0.840000
0.558000 0.408000 0.840000
0.744000 0.408000 0.840000
0.930000 0.408000 0.840000
0.000000 0.612000 0.840000
0.186000 0.612000 0.840000
0.372000 0.612000 0.840000
0.558000 0.612000 0.840000
0.744000 0.612000 0.840000
0.930000 0.612000 0.840000
0.000000 0.816000 0.840000
0.186000 0.816000 0.840000
0.372000 0.816000 0.840000
0.558000 0.816000 0.840000
0.744000 0.816000 0.840000
0.930000 0.816000 0.840000
0.000000 1.000000 0.840000
0.186000 1.000000 0.840000
0.372000 1.000000 0.840000
0.558000 1.000000 0.840000
0.744000 1.000000 0.840000
0.930000 1.000000 0.840000
0.000000 0.000000 1.000000
0.186000 0.000000 1.000000
0.372000 0.000000 1.000000
0.558000 0.000000 1.000000
0.744000 0.000000 1.000000
0.930000 0.000000 1.000000
0.000000 0.204000 1.000000
0.186000 0.204000 1.000000
0.372000 0.204000 1.000000
0.558000 0.204000 1.000000
0.744000 0.204000 1.000000
0.930000 0.204000 1.000000
0.000000 0.408000 1.000000
0.186000 0.408000 1.000000
0.372000 0.408000 1.000000
0.558000 0.408000 1.000000
0.744000 0.408000 1.000000
0.930000 0.408000 1.000000
0.000000 0.612000 1.000000
0.186000 0.612000 1.000000
0.372000 0.612000 1.000000
0.558000 0.612000 1.000000
0.744000 0.612000 1.000000
0.930000 0.612000 1.000000
0.000000 0.816000 1.000000
0.186000 0.816000 1.000000
0.372000 0.816000 1.000000
0.558000 0.816000 1.000000
0.744000 0.816000 1.000000
0.930000 0.816000 1.000000
0.000000 1.000000 1.000000
0.186000 1.000000 1.000000
0.372000 1.000000 1.000000
0.558000 1.000000 1.000000
0.744000 1.000000 1.000000
0.930000 1.000000 1.000000