resources/luts/film-warm.cube
TITLE "film-warm"
LUT_3D_SIZE 6
0.020000 0.000000 0.000000
0.228000 0.000000 0.000000
0.436000 0.000000 0.000000
0.644000 0.000000 0.000000
0.852000 0.000000 0.000000
1.000000 0.000000 0.000000
0.020000 0.202000 0.000000
0.228000 0.202000 0.000000
0.436000 0.202000 0.000000
0.644000 0.202000 0.000000
0.852000 0.202000 0.000000
1.000000 0.202000 0.000000
0.020000 0.404000 0.000000
0.228000 0.404000 0.000000
0.436000 0.404000 0.000000
0.644000 0.404000 0.000000
0.852000 0.404000 0.000000
1.000000 0.404000 0.000000
0.020000 0.606000 0.000000
0.228000 0.606000 0.000000
0.436000 0.606000 0.000000
0.644000 0.606000 0.000000
0.852000 0.606000 0.000000
1.000000 0.606000 0.000000
0.020000 0.808000 0.000000
0.228000 0.808000 0.000000
0.436000 0.808000 0.000000
0.644000 0.808000 0.000000
0.852000 0.808000 0.000000
1.000000 0.808000 0.000000
0.020000 1.000000 0.000000
0.228000 1.000000 0.000000
0.436000 1.000000 0.000000
0.644000 1.000000 0.000000
0.852000 1.000000 0.000000
1.000000 1.000000 0.000000
0.020000 0.000000 0.186000
0.228000 0.000000 0.186000
0.436000 0.000000 0.186000
0.644000 0.000000 0.186000
0.852000 0.000000 0.186000
1.000000 0.000000 0.186000
0.020000 0.202000 0.186000
0.228000 0.202000 0.186000
0.436000 0.202000 0.186000
0.644000 0.202000 0.186000
0.852000 0.202000 0.186000
1.000000 0.202000 0.186000
0.020000 0.404000 0.186000
0.228000 0.404000 0.186000
0.436000 0.404000 0.186000
0.644000 0.404000 0.186000
0.852000 0.404000 0.186000
1.000000 0.404000 0.186000
0.020000 0.606000 0.186000
0.228000 0.606000 0.186000
0.436000 0.606000 0.186000
0.644000 0.606000 0.186000
0.852000 0.606000 0.186000
1.000000 0.606000 0.186000
0.020000 0.808000 0.186000
0.228000 0.808000 0.186000
0.436000 0.808000 0.186000
0.644000 0.808000 0.186000
0.852000 0.808000 0.186000
1.000000 0.808000 0.186000
0.020000 1.000000 0.186000
0.228000 1.000000 0.186000
0.436000 1.000000 0.186000
0.644000 1.000000 0.186000
0.852000 1.000000 0.186000
1.000000 1.000000 0.186000
0.020000 0.000000 0.372000
0.228000 0.000000 0.372000
0.436000 0.000000 0.372000
0.644000 0.000000 0.372000
0.852000 0.000000 0.372000
1.000000 0.000000 0.372000
0.020000 0.202000 0.372000
0.228000 0.202000 0.372000
0.436000 0.202000 0.372000
0.644000 0.202000 0.372000
0.852000 0.202000 0.372000
1.000000 0.202000 0.372000
0.020000 0.404000 0.372000
0.228000 0.404000 0.372000
0.436000 0.404000 0.372000
0.644000 0.404000 0.372000
0.852000 0.404000 0.372000
1.000000 0.404000 0.372000
0.020000 0.606000 0.372000
0.228000 0.606000 0.372000
0.436000 0.606000 0.372000
0.644000 0.606000 0.372000
0.852000 0.606000 0.372000
1.000000 0.606000 0.372000
0.020000 0.808000 0.372000
0.228000 0.808000 0.372000
0.436000 0.808000 0.372000
0.644000 0.808000 0.372000
0.852000 0.808000 0.372000
1.000000 0.808000 0.372000
0.020000 1.000000 0.372000
0.228000 1.000000 0.372000
0.436000 1.000000 0.372000
0.644000 1.000000 0.372000
0.852000 1.000000 0.372000
1.000000 1.000000 0.372000
0.020000 0.000000 0.558000
0.228000 0.000000 0.558000
0.436000 0.000000 0.558000
0.644000 0.000000 0.558000
0.852000 0.000000 0.558000
1.000000 0.000000 0.558000
0.020000 0.202000 0.558000
0.228000 0.202000 0.558000
0.436000 0.202000 0.558000
0.644000 0.202000 0.558000
0.852000 0.202000 0.558000
1.000000 0.202000 0.558000
0.020000 0.404000 0.558000
0.228000 0.404000 0.558000
0.436000 0.404000 0.558000
0.644000 0.404000 0.558000
0.852000 0.404000 0.558000
1.000000 0.404000 0.558000
0.020000 0.606000 0.558000
0.228000 0.606000 0.558000
0.436000 0.606000 0.558000
0.644000 0.606000 0.558000
0.852000 0.606000 0.558000
1.000000 0.606000 0.558000
0.020000 0.808000 0.558000
0.228000 0.808000 0.558000
0.436000 0.808000 0.558000
0.644000 0.808000 0.558000
0.852000 0.808000 0.558000
1.000000 0.808000 0.558000
0.020000 1.000000 0.558000
0.228000 1.000000 0.558000
0.436000 1.000000 0.558000
0.644000 1.000000 0.558000
0.852000 1.000000 0.558000
1.000000 1.000000 0.558000
0.020000 0.000000 0.744000
0.228000 0.000000 0.744000
0.436000 0.000000 0.744000
0.644000 0.000000 0.744000
0.852000 0.000000 0.744000
1.000000 0.000000 0.744000
0.020000 0.202000 0.744000
0.228000 0.202000 0.744000
0.436000 0.202000 0.744000
0.644000 0.202000 0.744000
0.852000 0.202000 0.744000
1.000000 0.202000 0.744000
0.020000 0.404000 0.744000
0.228000 0.404000 0.744000
0.436000 0.404000 0.744000
0.644000 0.404000 0.744000
0.852000 0.404000 0.744000
1.000000 0.404000 0.744000
0.020000 0.606000 0.744000
0.228000 0.606000 0.744000
0.436000 0.606000 0.744000
0.644000 0.606000 0.744000
0.852000 0.606000 0.744000
1.000000 0.606000 0.744000
0.020000 0.808000 0.744000
0.228000 0.808000 0.744000
0.436000 0.808000 0.744000
0.644000 0.808000 0.744000
0.852000 0.808000 0.744000
1.000000 0.808000 0.744000
0.020000 1.000000 0.744000
0.228000 1.000000 0.744000
0.436000 1.000000 0.744000
0.644000 1.000000 0.744000
0.852000 1.000000 0.744000
1.000000 1.000000 0.744000
0.020000 0.000000 0.930000
0.228000 0.000000 0.930000
0.436000 0.000000 0.930000
0.644000 0.000000 0.930000
0.852000 0.000000 0.930000
1.000000 0.000000 0.930000
0.020000 0.202000 0.930000
0.228000 0.202000 0.930000
0.436000 0.202000 0.930000
0.644000 0.202000 0.930000
0.852000 0.202000 0.930000
1.000000 0.202000 0.930000
0.020000 0.404000 0.930000
0.228000 0.404000 0.930000
0.436000 0.404000 0.930000
0.644000 0.404000 0.930000
0.852000 0.404000 0.930000
1.000000 0.404000 0.930000
0.020000 0.606000 0.930000
0.228000 0.606000 0.930000
0.436000 0.606000 0.930000
0.644000 0.606000 0.930000
0.852000 0.606000 0.930000
1.000000 0.606000 0.930000
0.020000 0.808000 0.930000
0.228000 0.808000 0.930000
0.436000 0.808000 0.930000
0.644000 0.808000 0.930000
0.852000 0.808000 0.930000
1.000000 0.808000 0.930000
0.020000 1.000000 0.930000
0.228000 1.000000 0.930000
0.436000 1.000000 0.930000
0.644000 1.000000 0.930000
0.852000 1.000000 0.930000
1.000000 1.000000 0.930000