resources/luts/punch.cube
TITLE "punch"
LUT_3D_SIZE 6
0.000000 0.000000 0.000000
0.214020 0.000000 0.000000
0.428040 0.000000 0.000000
0.642060 0.000000 0.000000
0.856080 0.000000 0.000000
1.000000 0.000000 0.000000
0.000000 0.208260 0.000000
0.202280 0.202280 0.000000
0.416300 0.196300 0.000000
0.630320 0.190320 0.000000
0.844340 0.184340 0.000000
1.000000 0.178360 0.000000
0.000000 0.416520 0.000000
0.190540 0.410540 0.000000
0.404560 0.404560 0.000000
0.618580 0.398580 0.000000
0.832600 0.392600 0.000000
1.000000 0.386620 0.000000
0.000000 0.624780 0.000000
0.178800 0.618800 0.000000
0.392820 0.612820 0.000000
0.606840 0.606840 0.000000
0.820860 0.600860 0.000000
1.000000 0.594880 0.000000
0.000000 0.833040 0.000000
0.167060 0.827060 0.000000
0.381080 0.821080 0.000000
0.595100 0.815100 0.000000
0.809120 0.809120 0.000000
1.000000 0.803140 0.000000
0.000000 1.000000 0.000000
0.155320 1.000000 0.000000
0.369340 1.000000 0.000000
0.583360 1.000000 0.000000
0.797380 1.000000 0.000000
1.000000 1.000000 0.000000
0.000000 0.000000 0.217720
0.211740 0.000000 0.211740
0.425760 0.000000 0.205760
0.639780 0.000000 0.199780
0.853800 0.000000 0.193800
1.000000 0.000000 0.187820
0.000000 0.205980 0.205980
0.200000 0.200000 0.200000
0.414020 0.194020 0.194020
0.628040 0.188040 0.188040
0.842060 0.182060 0.182060
1.000000 0.176080 0.176080
0.000000 0.414240 0.194240
0.188260 0.408260 0.188260
0.402280 0.402280 0.182280
0.616300 0.396300 0.176300
0.830320 0.390320 0.170320
1.000000 0.384340 0.164340
0.000000 0.622500 0.182500
0.176520 0.616520 0.176520
0.390540 0.610540 0.170540
0.604560 0.604560 0.164560
0.818580 0.598580 0.158580
1.000000 0.592600 0.152600
0.000000 0.830760 0.170760
0.164780 0.824780 0.164780
0.378800 0.818800 0.158800
0.592820 0.812820 0.152820
0.806840 0.806840 0.146840
1.000000 0.800860 0.140860
0.000000 1.000000 0.159020
0.153040 1.000000 0.153040
0.367060 1.000000 0.147060
0.581080 1.000000 0.141080
0.795100 1.000000 0.135100
1.000000 1.000000 0.129120
0.000000 0.000000 0.435440
0.209460 0.000000 0.429460
0.423480 0.000000 0.423480
0.637500 0.000000 0.417500
0.851520 0.000000 0.411520
1.000000 0.000000 0.405540
0.000000 0.203700 0.423700
0.197720 0.197720 0.417720
0.411740 0.191740 0.411740
0.625760 0.185760 0.405760
0.839780 0.179780 0.399780
1.000000 0.173800 0.393800
0.000000 0.411960 0.411960
0.185980 0.405980 0.405980
0.400000 0.400000 0.400000
0.614020 0.394020 0.394020
0.828040 0.388040 0.388040
1.000000 0.382060 0.382060
0.000000 0.620220 0.400220
0.174240 0.614240 0.394240
0.388260 0.608260 0.388260
0.602280 0.602280 0.382280
0.816300 0.596300 0.376300
1.000000 0.590320 0.370320
0.000000 0.828480 0.388480
0.162500 0.822500 0.382500
0.376520 0.816520 0.376520
0.590540 0.810540 0.370540
0.804560 0.804560 0.364560
1.000000 0.798580 0.358580
0.000000 1.000000 0.376740
0.150760 1.000000 0.370760
0.364780 1.000000 0.364780
0.578800 1.000000 0.358800
0.792820 1.000000 0.352820
1.000000 1.000000 0.346840
0.000000 0.000000 0.653160
0.207180 0.000000 0.647180
0.421200 0.000000 0.641200
0.635220 0.000000 0.635220
0.849240 0.000000 0.629240
1.000000 0.000000 0.623260
0.000000 0.201420 0.641420
0.195440 0.195440 0.635440
0.409460 0.189460 0.629460
0.623480 0.183480 0.623480
0.837500 0.177500 0.617500
1.000000 0.171520 0.611520
0.000000 0.409680 0.629680
0.183700 0.403700 0.623700
0.397720 0.397720 0.617720
0.611740 0.391740 0.611740
0.825760 0.385760 0.605760
1.000000 0.379780 0.599780
0.000000 0.617940 0.617940
0.171960 0.611960 0.611960
0.385980 0.605980 0.605980
0.600000 0.600000 0.600000
0.814020 0.594020 0.594020
1.000000 0.588040 0.588040
0.000000 0.826200 0.606200
0.160220 0.820220 0.600220
0.374240 0.814240 0.594240
0.588260 0.808260 0.588260
0.802280 0.802280 0.582280
1.000000 0.796300 0.576300
0.000000 1.000000 0.594460
0.148480 1.000000 0.588480
0.362500 1.000000 0.582500
0.576520 1.000000 0.576520
0.790540 1.000000 0.570540
1.000000 1.000000 0.564560
0.000000 0.000000 0.870880
0.204900 0.000000 0.864900
0.418920 0.000000 0.858920
0.632940 0.000000 0.852940
0.846960 0.000000 0.846960
1.000000 0.000000 0.840980
0.000000 0.199140 0.859140
0.193160 0.193160 0.853160
0.407180 0.187180 0.847180
0.621200 0.181200 0.841200
0.835220 0.175220 0.835220
1.000000 0.169240 0.829240
0.000000 0.407400 0.847400
0.181420 0.401420 0.841420
0.395440 0.395440 0.835440
0.609460 0.389460 0.829460
0.823480 0.383480 0.823480
1.000000 0.377500 0.817500
0.000000 0.615660 0.835660
0.169680 0.609680 0.829680
0.383700 0.603700 0.823700
0.597720 0.597720 0.817720
0.811740 0.591740 0.811740
1.000000 0.585760 0.805760
0.000000 0.823920 0.823920
0.157940 0.817940 0.817940
0.371960 0.811960 0.811960
0.585980 0.805980 0.805980
0.800000 0.800000 0.800000
1.000000 0.794020 0.794020
0.000000 1.000000 0.812180
0.146200 1.000000 0.806200
0.360220 1.000000 0.800220
0.574240 1.000000 0.794240
0.788260 1.000000 0.788260
1.000000 1.000000 0.782280
0.000000 0.000000 1.000000
0.202620 0.000000 1.000000
0.416640 0.000000 1.000000
0.630660 0.000000 1.000000
0.844680 0.000000 1.000000
1.000000 0.000000 1.000000
0.000000 0.196860 1.000000
0.190880 0.190880 1.000000
0.404900 0.184900 1.000000
0.618920 0.178920 1.000000
0.832940 0.172940 1.000000
1.000000 0.166960 1.000000
0.000000 0.405120 1.000000
0.179140 0.399140 1.000000
0.393160 0.393160 1.000000
0.607180 0.387180 1.000000
0.821200 0.381200 1.000000
1.000000 0.375220 1.000000
0.000000 0.613380 1.000000
0.167400 0.607400 1.000000
0.381420 0.601420 1.000000
0.595440 0.595440 1.000000
0.809460 0.589460 1.000000
1.000000 0.583480 1.000000
0.000000 0.821640 1.000000
0.155660 0.815660 1.000000
0.369680 0.809680 1.000000
0.583700 0.803700 1.000000
0.797720 0.797720 1.000000
1.000000 0.791740 1.000000
0.000000 1.000000 1.000000
0.143920 1.000000 1.000000
0.357940 1.000000 1.000000
0.571960 1.000000 1.000000
0.785980 1.000000 1.000000
1.000000 1.000000 1.000000